svgs/thin/address-book.svg

<svg xmlns="http://www.w3.org/2000/svg" viewBox="0 0 512 512"><!-- Font Awesome Pro 6.0.0-alpha2 by @fontawesome - https://fontawesome.com License - https://fontawesome.com/license (Commercial License) --><path d="M400 0H80C53.49 0 32 21.49 32 48V464C32 490.51 53.49 512 80 512H400C426.51 512 448 490.51 448 464V48C448 21.49 426.51 0 400 0ZM432 464C432 481.645 417.645 496 400 496H80C62.355 496 48 481.645 48 464V48C48 30.355 62.355 16 80 16H400C417.645 16 432 30.355 432 48V464ZM240 256C275.348 256 304 227.346 304 192S275.348 128 240 128C204.656 128 176 156.654 176 192S204.656 256 240 256ZM240 144C266.469 144 288 165.533 288 192S266.469 240 240 240S192 218.467 192 192S213.531 144 240 144ZM496 64H488C483.582 64 480 67.582 480 72S483.582 80 488 80H496V144H488C483.582 144 480 147.582 480 152S483.582 160 488 160H496C504.836 160 512 152.836 512 144V80C512 71.164 504.836 64 496 64ZM496 320H488C483.582 320 480 323.582 480 328S483.582 336 488 336H496V400H488C483.582 400 480 403.582 480 408S483.582 416 488 416H496C504.836 416 512 408.836 512 400V336C512 327.164 504.836 320 496 320ZM496 192H488C483.582 192 480 195.582 480 200S483.582 208 488 208H496V272H488C483.582 272 480 275.582 480 280S483.582 288 488 288H496C504.836 288 512 280.836 512 272V208C512 199.164 504.836 192 496 192ZM272 288H208C163.891 288 128 323.891 128 368V376C128 380.422 131.578 384 136 384S144 380.422 144 376V368C144 332.703 172.703 304 208 304H272C307.297 304 336 332.703 336 368V376C336 380.422 339.578 384 344 384S352 380.422 352 376V368C352 323.891 316.109 288 272 288Z"/></svg>

<svg xmlns="http://www.w3.org/2000/svg" viewBox="0 0 512 512"><!--! Font Awesome Pro 6.3.0 by @fontawesome - https://fontawesome.com License - https://fontawesome.com/license (Commercial License) Copyright 2023 Fonticons, Inc. --><path d="M400 0h-320C53.49 0 32 21.49 32 48v416C32 490.5 53.49 512 80 512h320c26.51 0 48-21.49 48-48v-416C448 21.49 426.5 0 400 0zM432 464c0 17.64-14.36 32-32 32h-320c-17.64 0-32-14.36-32-32v-416c0-17.64 14.36-32 32-32h320c17.64 0 32 14.36 32 32V464zM240 256c35.35 0 64-28.65 64-64s-28.65-64-64-64c-35.34 0-64 28.65-64 64S204.7 256 240 256zM240 144C266.5 144 288 165.5 288 192s-21.53 48-48 48S192 218.5 192 192S213.5 144 240 144zM496 64h-8C483.6 64 480 67.58 480 72s3.582 8 8 8h8v64h-8C483.6 144 480 147.6 480 152S483.6 160 488 160h8C504.8 160 512 152.8 512 144v-64C512 71.16 504.8 64 496 64zM496 320h-8C483.6 320 480 323.6 480 328s3.582 8 8 8h8v64h-8c-4.418 0-8 3.582-8 8S483.6 416 488 416h8c8.836 0 16-7.164 16-16v-64C512 327.2 504.8 320 496 320zM496 192h-8C483.6 192 480 195.6 480 200s3.582 8 8 8h8v64h-8C483.6 272 480 275.6 480 280S483.6 288 488 288h8C504.8 288 512 280.8 512 272v-64C512 199.2 504.8 192 496 192zM272 288h-64C163.9 288 128 323.9 128 368v8C128 380.4 131.6 384 136 384s8-3.578 8-8V368c0-35.3 28.7-64 64-64h64c35.3 0 64 28.7 64 64v8c0 4.422 3.578 8 8 8S352 380.4 352 376V368C352 323.9 316.1 288 272 288z"/></svg>
